Numix-GalliumOS/32/categories/preferences-system-time.svg

<?xml version="1.0" encoding="UTF-8" standalone="no"?>
<svg
   xmlns:dc="http://purl.org/dc/elements/1.1/"
   xmlns:cc="http://creativecommons.org/ns#"
   xmlns:rdf="http://www.w3.org/1999/02/22-rdf-syntax-ns#"
   xmlns:svg="http://www.w3.org/2000/svg"
   xmlns="http://www.w3.org/2000/svg"
   xmlns:sodipodi="http://sodipodi.sourceforge.net/DTD/sodipodi-0.dtd"
   xmlns:inkscape="http://www.inkscape.org/namespaces/inkscape"
   width="32"
   height="32"
   viewBox="0 0 25.6 25.6"
   id="svg2"
   version="1.1"
   inkscape:version="0.91 r"
   sodipodi:docname="preferences-system-time.svg">
  <metadata
     id="metadata60">
    <rdf:RDF>
      <cc:Work
         rdf:about="">
        <dc:format>image/svg+xml</dc:format>
        <dc:type
           rdf:resource="http://purl.org/dc/dcmitype/StillImage" />
        <dc:title />
      </cc:Work>
    </rdf:RDF>
  </metadata>
  <defs
     id="defs58" />
  <sodipodi:namedview
     pagecolor="#ffffff"
     bordercolor="#666666"
     borderopacity="1"
     objecttolerance="10"
     gridtolerance="10"
     guidetolerance="10"
     inkscape:pageopacity="0"
     inkscape:pageshadow="2"
     inkscape:window-width="1920"
     inkscape:window-height="1056"
     id="namedview56"
     showgrid="true"
     inkscape:zoom="5.6568543"
     inkscape:cx="-14.477234"
     inkscape:cy="7.711001"
     inkscape:window-x="0"
     inkscape:window-y="24"
     inkscape:window-maximized="1"
     inkscape:current-layer="svg2">
    <inkscape:grid
       type="xygrid"
       id="grid4229" />
  </sodipodi:namedview>
  <path
     style="fill:#fd4651;fill-opacity:1"
     d="m 12.675555,5.6 0.248889,0 c 0.223999,0 0.408889,0.136454 0.408889,0.307692 l 0,0.984615 C 13.333333,7.060869 13.148443,7.2 12.924444,7.2 l -0.248889,0 c -0.224,0 -0.408889,-0.139131 -0.408889,-0.307693 l 0,-0.984615 C 12.266666,5.736454 12.451555,5.6 12.675555,5.6 Z"
     id="path20"
     inkscape:connector-curvature="0" />
  <path
     style="fill:#fd4651;fill-opacity:1"
     d="m 12.675556,18.4 0.248889,0 c 0.223999,0 0.408889,0.138898 0.408889,0.307178 l 0,0.985643 C 13.333334,19.861101 13.148444,20 12.924445,20 l -0.248889,0 c -0.224,0 -0.408889,-0.138899 -0.408889,-0.307179 l 0,-0.985643 c 0,-0.16828 0.184889,-0.307178 0.408889,-0.307178 z"
     id="path22"
     inkscape:connector-curvature="0" />
  <path
     style="fill:#fd4651;fill-opacity:1"
     d="m 5.6,12.923077 0,-0.246153 c 0,-0.224749 0.1388974,-0.410257 0.3098494,-0.410257 l 0.9829719,0 c 0.1682807,0 0.3071786,0.185508 0.3071786,0.410257 l 0,0.246153 c 0,0.228317 -0.138898,0.410256 -0.3071786,0.410256 l -0.9829719,0 C 5.7388974,13.333333 5.6,13.151394 5.6,12.923077 Z"
     id="path24"
     inkscape:connector-curvature="0" />
  <path
     style="fill:#fd4651;fill-opacity:1"
     d="m 18.4,12.923077 0,-0.246153 c 0,-0.224749 0.13913,-0.410257 0.307692,-0.410257 l 0.984615,0 C 19.863545,12.266667 20,12.452175 20,12.676924 l 0,0.246153 c 0,0.228317 -0.136455,0.410256 -0.307693,0.410256 l -0.984615,0 C 18.53913,13.333333 18.4,13.151394 18.4,12.923077 Z"
     id="path26"
     inkscape:connector-curvature="0" />
  <circle
     style="opacity:1;fill:none;fill-opacity:1;fill-rule:nonzero;stroke:#fd4651;stroke-width:2.4000001;stroke-linecap:butt;stroke-linejoin:miter;stroke-miterlimit:4;stroke-dasharray:none;stroke-dashoffset:0;stroke-opacity:1"
     id="path4231"
     cx="12.8"
     cy="12.8"
     r="9.999999" />
  <path
     style="fill:#fd4651;fill-opacity:1;fill-rule:nonzero;stroke:none"
     d="M 9.0635416,8.501458 C 8.9424755,8.501458 8.8209002,8.548268 8.729167,8.64 L 8.709375,8.66292 c -0.1855999,0.183466 -0.1855999,0.4832 0,0.666666 l 2.779167,2.779167 c 0.0013,0.0013 0.0029,0.0019 0.0042,0.0031 a 1.4666667,1.4666667 0 0 1 0.7,-0.671875 c -0.0058,-0.0066 -0.0084,-0.01453 -0.01458,-0.02083 L 9.3989956,8.639981 c -0.0928,-0.09173 -0.21435,-0.138542 -0.335417,-0.138542 z"
     id="path55"
     inkscape:connector-curvature="0" />
  <path
     style="fill:#fd4651;fill-opacity:1;fill-rule:nonzero;stroke:none"
     d="m 18.76875,8.753542 c -0.06098,0.0077 -0.121314,0.02762 -0.178125,0.06042 l -4.876041,2.814584 a 1.4666667,1.4666667 0 0 1 0.534375,0.925 l 4.874999,-2.814584 c 0.227248,-0.1312 0.304092,-0.421477 0.173959,-0.646875 l -0.06042,-0.105208 c -0.0984,-0.170436 -0.285794,-0.256345 -0.46875,-0.233333 z"
     id="path57"
     inkscape:connector-curvature="0" />
  <path
     style="fill:#fd4651;fill-opacity:1;fill-rule:nonzero;stroke:none"
     d="m 11.852084,13.893125 -2.7229174,5.017708 c -0.0624,0.114667 -0.02295,0.26245 0.08958,0.33125 l 0.03125,0.02083 c 0.112534,0.06667 0.252184,0.02925 0.314584,-0.08542 l 2.7302084,-5.029166 a 1.4666667,1.4666667 0 0 1 -0.442705,-0.255202 z"
     id="path59"
     inkscape:connector-curvature="0" />
  <path
     style="fill:#fd4651;fill-opacity:1;fill-rule:nonzero;stroke:none"
     d="M 16 13.966797 C 14.894501 13.966797 14 14.861297 14 15.966797 C 14 17.072297 14.894501 17.966797 16 17.966797 C 17.1055 17.966797 18 17.072297 18 15.966797 C 18 14.861297 17.1055 13.966797 16 13.966797 z M 16 15 A 1 1 0 0 1 17 16 A 1 1 0 0 1 16 17 A 1 1 0 0 1 15 16 A 1 1 0 0 1 16 15 z "
     transform="scale(0.8,0.8)"
     id="path61" />
</svg>

<svg xmlns="http://www.w3.org/2000/svg" width="32" height="32" viewBox="0 0 25.6 25.6">
 <path d="m 12.676 5.6 0.249 0 c 0.224 0 0.409 0.136 0.409 0.308 l 0 0.985 c 0 0.169 -0.185 0.308 -0.409 0.308 l -0.249 0 c -0.224 0 -0.409 -0.139 -0.409 -0.308 l 0 -0.985 c 0 -0.171 0.185 -0.308 0.409 -0.308" style="fill:#fd4651;fill-opacity:1"/>
 <path d="m 12.676 18.4 0.249 0 c 0.224 0 0.409 0.139 0.409 0.307 l 0 0.986 c 0 0.168 -0.185 0.307 -0.409 0.307 l -0.249 0 c -0.224 0 -0.409 -0.139 -0.409 -0.307 l 0 -0.986 c 0 -0.168 0.185 -0.307 0.409 -0.307 z" style="fill:#fd4651;fill-opacity:1"/>
 <path d="m 5.6 12.923 0 -0.246 c 0 -0.225 0.139 -0.41 0.31 -0.41 l 0.983 0 c 0.168 0 0.307 0.186 0.307 0.41 l 0 0.246 c 0 0.228 -0.139 0.41 -0.307 0.41 l -0.983 0 c -0.171 0 -0.31 -0.182 -0.31 -0.41" style="fill:#fd4651;fill-opacity:1"/>
 <path d="m 18.4 12.923 0 -0.246 c 0 -0.225 0.139 -0.41 0.308 -0.41 l 0.985 0 c 0.171 0 0.308 0.186 0.308 0.41 l 0 0.246 c 0 0.228 -0.136 0.41 -0.308 0.41 l -0.985 0 c -0.169 0 -0.308 -0.182 -0.308 -0.41" style="fill:#fd4651;fill-opacity:1"/>
 <circle cx="12.8" cy="12.8" r="10" style="stroke-dasharray:none;stroke-opacity:1;fill:none;opacity:1;stroke-miterlimit:4;fill-opacity:1;stroke:#fd4651;fill-rule:nonzero;stroke-linecap:butt;stroke-linejoin:miter;stroke-width:2.4;stroke-dashoffset:0"/>
 <path d="m 9.06 8.501 c -0.121 0 -0.243 0.047 -0.334 0.139 l -0.02 0.023 c -0.186 0.183 -0.186 0.483 0 0.667 l 2.779 2.779 c 0.001 0.001 0.003 0.002 0.004 0.003 a 1.467 1.467 0 0 1 0.7 -0.672 c -0.006 -0.007 -0.008 -0.015 -0.015 -0.021 l -2.779 -2.779 c -0.093 -0.092 -0.214 -0.139 -0.335 -0.139 z" style="fill:#fd4651;fill-opacity:1;stroke:none;fill-rule:nonzero"/>
 <path d="m 18.769 8.754 c -0.061 0.008 -0.121 0.028 -0.178 0.06 l -4.876 2.815 a 1.467 1.467 0 0 1 0.534 0.925 l 4.875 -2.815 c 0.227 -0.131 0.304 -0.421 0.174 -0.647 l -0.06 -0.105 c -0.098 -0.17 -0.286 -0.256 -0.469 -0.233 z" style="fill:#fd4651;fill-opacity:1;stroke:none;fill-rule:nonzero"/>
 <path d="m 11.852 13.893 -2.723 5.02 c -0.062 0.115 -0.023 0.262 0.09 0.331 l 0.031 0.021 c 0.113 0.067 0.252 0.029 0.315 -0.085 l 2.73 -5.03 a 1.467 1.467 0 0 1 -0.443 -0.255 z" style="fill:#fd4651;fill-opacity:1;stroke:none;fill-rule:nonzero"/>
 <path d="m 16 13.967 c -1.105 0 -2 0.895 -2 2 c 0 1.105 0.895 2 2 2 c 1.105 0 2 -0.895 2 -2 c 0 -1.105 -0.895 -2 -2 -2 z m 0 1.033 a 1 1 0 0 1 1 1 a 1 1 0 0 1 -1 1 a 1 1 0 0 1 -1 -1 a 1 1 0 0 1 1 -1 z" transform="scale(0.8,0.8)" style="fill:#fd4651;fill-opacity:1;stroke:none;fill-rule:nonzero"/>
</svg>
